dist/img/svg/ic_cart.svg

<svg width="21" height="17" viewBox="0 0 21 17" xmlns="http://www.w3.org/2000/svg">
<path d="M20.8361 2.42485C20.6813 2.22081 20.438 2.10071 20.1797 2.10071H4.7284L4.27793 0.582088C4.17559 0.237069 3.85498 0 3.49068 0H0.820308C0.367253 0 0 0.362424 0 0.809524C0 1.25662 0.367253 1.61905 0.820308 1.61905H2.87605C2.99586 2.02296 6.02593 12.2378 6.14832 12.6504C6.25065 12.9954 6.57131 13.2325 6.93557 13.2325H17.3579C17.7222 13.2325 18.0428 12.9954 18.1452 12.6504L20.967 3.13767C21.0395 2.89304 20.9911 2.62889 20.8361 2.42485ZM16.7433 11.6135H7.55019L5.20869 3.71976H19.0848L16.7433 11.6135Z"  />
<path d="M9.93762 17C10.5493 17 11.0451 16.5107 11.0451 15.9071C11.0451 15.3036 10.5493 14.8143 9.93762 14.8143C9.32606 14.8143 8.83025 15.3036 8.83025 15.9071C8.83025 16.5107 9.32606 17 9.93762 17Z"  />
<path d="M14.3558 17C14.9675 17 15.4633 16.5107 15.4633 15.9071C15.4633 15.3036 14.9675 14.8143 14.3558 14.8143C13.7443 14.8143 13.2485 15.3036 13.2485 15.9071C13.2485 16.5107 13.7443 17 14.3558 17Z"  />
</svg>

<svg width="21" height="17" viewBox="0 0 21 17" xmlns="http://www.w3.org/2000/svg"><path d="M20.836 2.425a.824.824 0 00-.656-.324H4.728L4.278.582A.819.819 0 003.49 0H.82A.815.815 0 000 .81c0 .447.367.809.82.809h2.056L6.148 12.65a.819.819 0 00.788.582h10.422a.819.819 0 00.787-.582l2.822-9.512a.801.801 0 00-.13-.713zm-4.093 9.188H7.55L5.21 3.72h13.876l-2.342 7.893zM9.938 17a1.1 1.1 0 001.107-1.093 1.1 1.1 0 00-1.107-1.093 1.1 1.1 0 00-1.108 1.093A1.1 1.1 0 009.938 17zm4.418 0a1.1 1.1 0 001.107-1.093 1.1 1.1 0 00-1.107-1.093 1.1 1.1 0 00-1.107 1.093A1.1 1.1 0 0014.355 17z"/></svg>
